X: 75
T:Longford Collector, The
M:C|
L:1/8
R:Reel
K:G
G3A Bddf|eB~B2 eBdB|GFGA B2dB|A2AB GEDE|!
GFGA Bddf|eB~B2 d2ef|gfga gedB|1AcBA GEDE:|2AcBA GEE2|!
|:gfga gedf|eB~B2 d2ef|gfga gedB|AcBA GEE2|!
gfga gedf|eB~B2 d2ef|gbaf gedB|1AcBA GEE2:|2AcBA GEDE|]!
